src/main/resources/icons/AllIcons/ide/rating1.svg

<!-- Copyright 2000-2021 JetBrains s.r.o. Use of this source code is governed by the Apache 2.0 license that can be found in the LICENSE file. -->
<svg xmlns="http://www.w3.org/2000/svg" width="11" height="11" viewBox="0 0 11 11">
  <path fill="#389FD6" fill-rule="evenodd" d="M5.50000002,9.12097567 L2.10081307,11 L2.75000001,7.02016261 L0,4.20162612 L3.80040655,3.62097568 L5.50000002,0 L7.19959349,3.62097568 L11,4.20162612 L8.25000003,7.02016261 L8.89918697,11 L5.50000002,9.12097567 Z M5.50000002,7.93006001 L7.63131359,9.10822117 L7.22426891,6.61283579 L8.94853781,4.84559406 L6.5656568,4.48152223 L5.50000002,2.21114562 L4.43434324,4.48152223 L4,4.57765624 L4,8.82504534 L5.50000002,7.93006001 Z"/>
</svg>

<svg xmlns="http://www.w3.org/2000/svg" width="11" height="11" viewBox="0 0 11 11"><rect id="frame" width="11" height="11" fill="none"/><path fill="#389FD6" fill-rule="evenodd" d="M5.5 9.121L2.1 11l.65-3.98L0 4.202l3.8-.581L5.5 0l1.7 3.621 3.8.58-2.75 2.82L8.9 11 5.5 9.121zm0-1.19l2.131 1.177-.407-2.495L8.95 4.846l-2.383-.364L5.5 2.212l-1.066 2.27L4 4.578v4.247l1.5-.895z"/></svg>
